!!!COM:	Bach, Johann Sebastian
!!!CDT:	1685/02/21/-1750/07/28/
!!!OTL@@DE:	F&uuml;r Freuden la&szlig;t uns springen
!!!SCT:	BWV 313
!!!PC#:	163
!!!AGN:	chorale
**kern	**kern	**kern	**kern
*ICvox	*ICvox	*ICvox	*ICvox
*Ibass	*Itenor	*Ialto	*Isoprn
*I"Bass	*I"Tenor	*I"Alto	*I"Soprano
*>[A,A,B]	*>[A,A,B]	*>[A,A,B]	*>[A,A,B]
*>norep[A,B]	*>norep[A,B]	*>norep[A,B]	*>norep[A,B]
*>A	*>A	*>A	*>A
*clefF4	*clefGv2	*clefG2	*clefG2
*k[b-e-]	*k[b-e-]	*k[b-e-]	*k[b-e-]
*g:	*g:	*g:	*g:
*M4/4	*M4/4	*M4/4	*M4/4
*met(c)	*met(c)	*met(c)	*met(c)
*MM100	*MM100	*MM100	*MM100
8GGL	8B-L	8gL	4dd
8AAJ	8cJ	8f#J	.
=1	=1	=1	=1
8BB-L	8dL	4g	4dd
8C	16cL	.	.
.	16B-JJ	.	.
8D	[4A	8f#L	4dd
8EJ	.	8gJ	.
8F#L	8AL]	8a	4dd
8G	8B-	4g	.
8A	8c	.	4cc
8DJ	8dJ	8f#	.
=2	=2	=2	=2
8GL	4d	8gL	2b-
8A	.	8f#J	.
8B-	4d	4g	.
8cJ	.	.	.
4d;	4d;	4f#;	4a;
8B-L	8dL	4f	4dd
8AJ	8cJ	.	.
=3	=3	=3	=3
8GL	4B-	4g	8ddL
8F	.	.	8ee-J
8E-	[4B-	4f	4ff
8DJ	.	.	.
8CL	8B-L]	[4cc	4ee-
8FJ	16AL	.	.
.	16GJJ	.	.
8BB-L	8FL	8ccL]	4dd
8DJ	8fJ	8b-J	.
=4	=4	=4	=4
8E-L	4g	4b-	2cc
8CJ	.	.	.
4F	4f	4a	.
4BB-;	4f;	4b-;	4dd;
=:|!	=:|!	=:|!	=:|!
*>B	*>B	*>B	*>B
4BB-	4f	8b-L	4dd
.	.	8aJ	.
=5	=5	=5	=5
4.C	8e-L	4g	4cc
.	8dJ	.	.
.	4e	[4g	4b-
8C#	.	.	.
4D	8AL	8gL]	4a
.	16dL	8f#J	.
.	16cJJ	.	.
8E-L	8B-L	4g	4g
8EJ	16cL	.	.
.	16B-JJ	.	.
=6	=6	=6	=6
8FL	8AL	8cL	4a
8F#J	16dL	8aJ	.
.	16cJJ	.	.
8GL	16B-LL	8dL	4b-
.	16AJ	.	.
8C#J	8GJ	8eJ	.
4D;	4d;	4f#;	4a;
4F#	4d	[4a	4dd
=7	=7	=7	=7
8GL	4d	4a]	4b-
8FnX	.	.	.
8E-X	8e-L	8gL	4b-
8DJ	8fJ	8fJ	.
4.C	4g	8fL	4cc
.	.	8e-XJ	.
.	8fL	8a-L	4dd
8BB	[8dJ	8gJ	.
=8	=8	=8	=8
8C	8dL]	4g	4ee-
4c	8cJ	.	.
.	8dL	4g	4dd
8B-X	8eJ	.	.
8AL	8f#L	4anX	4cc
8G	8A	.	.
8F#X	8d	8aL	4cc
8GJ	8e-J	8gJ	.
=9	=9	=9	=9
2D	8dL	8f#	4.dd
.	16cL	4g	.
.	16B-JJ	.	.
.	8AL	.	.
.	8dJ	8f#	8cc
4G;	4d;	4g;	4b;
==	==	==	==
*-	*-	*-	*-
!!!hum2abc: -Q ''
!!!title: @{PC#}. @{OTL@@DE}
!!!YOR1: 371 vierstimmige Choralges&auml;nge von Johann Sebastian Bach, 
!!!YOR2: 4th ed. by Alfred D&ouml;rffel (Leipzig: Breitkopf und H&auml;rtel, 
!!!YOR2: c.1875). 178 pp. Plate "V.A.10".  reprint: J.S. Bach, 371 Four-Part 
!!!YOR4: Chorales (New York: Associated Music Publishers, Inc., c.1940).
!!!SMS: B&H, 4th ed, Alfred D&ouml;rffel, c.1875, plate V.A.10
!!!EED:  Craig Stuart Sapp
!!!EEV:  2009/05/22
